!!!OTL: Guysboro Song
!!!ONM: 119.
**kern
*clefG2
*k[]
*C:
*M3/4
*MM80
{4c
=1
(4c
4e)
4g
=2
4a
4g
4e
=3
4d
4c
4B
=4
4.c
8r}
{12e
12e
12e
=5
(4e
4d)
4c
=6
4c
4d
4a
=7
4a
4g
4e
=8
4.g
8r}
{8g
8g
=9
4g
4a
4b
=10
4cc
4e
4e
=11
4e
4d
4a
=12
4.g
8r}
{8e
8e
=13
4e
4d
4c
=14
4d
4a
8c
8c
=15
(4d
4c)
4B
=16
2c}
==
*-
!!!CNT: Folksongs of Maritime Canada
!!!MRD: 1928///-1932///
!!!OCL: Helen Creighton
!!!YOR: Songs and Ballads from Nova Scotia
!!!PPR: J.M. Dent & Sons, Limited
!!!PPP: Toronto, Canada
!!!PDT: 1932///
!!!reprint: Dover Publications, 1992: ISBN 0-486-21703-5
!!!ENC1: Craig Stuart Sapp (music and bibliographic data)                       
!!!ENC2: Marcus Pearce (phrase markings and key designations)                   
!!!ENC3: Darrell Conklin (phrase markings and key designations)   
!!!END: 2002/04/10/
!!!EEV: 2004/06/05
!!!MPN: Mr. Ben Henneberry
!!!PPG: 259
!!!EFL: 120/152
!!!ARE: Canada; Nova Scotia
!!!verses: 11
!!!VTS: 1737948453
